www/assets/icons/expand.svg

<svg xmlns="http://www.w3.org/2000/svg" width="24" height="24" viewBox="0 0 24 24" fill='currentColor'><path d="M4 20h16v2H4zM4 2h16v2H4zm9 7h3l-4-4-4 4h3v6H8l4 4 4-4h-3z"/></svg>

<svg width="24" height="24" viewBox="0 0 24 24" xmlns="http://www.w3.org/2000/svg" fill='currentColor'><path d="M4 20H20V22H4V20ZM4 2H20V4H4V2ZM13 9H16L12 5L8 9H11V15H8L12 19L16 15H13V9Z"/></svg>
